!!!COM: Bach, Johann Sebastian
!!!CDT: 1685/3//-1750/7/28/
!!!OTL@@DE: Herr Gott, dich loben alle wir
!!!AGN: 4-Part Chorale
!!!SCT: BH 164
!!!SCT: BWV 326
**harm	**root	**kern	**kern	**kern	**kern
!	!	!bass	!tenor	!alto	!soprno
*	*Iorgan	*Iorgan	*Iorgan	*Iorgan	*Iorgan
*	*	*clefF4	*clefF4	*clefG2	*clefG2
*k[b-]	*k[b-]	*k[b-]	*k[b-]	*k[b-]	*k[b-]
*F:	*F:	*F:	*F:	*F:	*F:
*M3/4	*M3/4	*M3/4	*M3/4	*M3/4	*M3/4
*MM60	*MM60	*MM60	*MM60	*MM60	*MM60
I	4BB-	8FF	4A	4c	4f
.	.	8EE	.	.	.
=1	=1	=1	=1	=1	=1
vi	2GG	8DD	2A	2d	2f
.	.	8EE	.	.	.
.	.	8FF	.	.	.
.	.	8GG	.	.	.
I7	4BB-	8AA	4A	4c	4e
.	.	8FF	.	.	.
=2	=2	=2	=2	=2	=2
IV	2EE-	8BB-	2F	2B-	2d
.	.	8C	.	.	.
.	.	8D	.	.	.
.	.	8E	.	.	.
I	4BB-	8F	4F	4A	4c
.	.	8E	.	.	.
=3	=3	=3	=3	=3	=3
vi	4GG	8D	2F	4A	4f
.	.	8C	.	.	.
V7b/V	4CC	8BB-	.	4d	2g
.	.	8AA	.	.	.
V7d	4FF	8BB-	4E	4c	.
.	.	8C	.	.	.
=4	=4	=4	=4	=4	=4
I;	2BB-;	2FF;	2F;	2c;	2a;
V/VI	4DD	4CC#	4E	4e	4a
=5	=5	=5	=5	=5	=5
vi	2.GG	8DD	2F	2d	2a
.	.	8AA	.	.	.
.	.	8D	.	.	.
.	.	8C	.	.	.
.	.	8BB-	4F	4d	4a
.	.	8AA	.	.	.
=6	=6	=6	=6	=6	=6
IV7	4EE-	8BB-	4F	4d	2g
.	.	8GG	.	.	.
V	4FF	8C	4E	4c	.
.	.	8BB-	.	.	.
Ib	4BB-	8AA	4F	4c	4a
.	.	8GG	.	.	.
=7	=7	=7	=7	=7	=7
V7b	4FF	8FF	4G	4c	4b-
.	.	8EE	.	.	.
I	2BB-	8FF	2F	2c	2a
.	.	8GG	.	.	.
.	.	8AA	.	.	.
.	.	8BB-	.	.	.
!!linebreak: 2
=8	=8	=8	=8	=8	=8
V;	2FF;	2C;	2E;	2c;	2g;
vi	4GG	4D	4A	4d	4f
=9	=9	=9	=9	=9	=9
V	2FF	8E	2G	2c	2g
.	.	8C	.	.	.
.	.	8D	.	.	.
.	.	8E	.	.	.
vi7	4GG	8F	4F	8c	4a
.	.	8D	.	8f	.
=10	=10	=10	=10	=10	=10
ii7	4CC	8BB-	4F	4d	2g
.	.	8AA	.	.	.
V7d	4FF	8BB-	4E	8c	.
.	.	8C	.	8B-	.
vi	4GG	8D	4F	4A	4f
.	.	8AA	.	.	.
=11	=11	=11	=11	=11	=11
IV	4EE-	8BB-	8F	4d	4d
.	.	8FF	8A	.	.
vii7D	4AA	8GG	4B-	4d	2e
.	.	8EE	.	.	.
V/VI	4DD	8AA	4A	4c#	.
.	.	8AAA	.	.	.
=12	=12	=12	=12	=12	=12
vi;	2GG;	2DD;	2A;	2d;	2f;
Vb	4FF	4E	4G	4c	4cc
=13	=13	=13	=13	=13	=13
I	2BB-	8F	2A	2c	2a
.	.	8G	.	.	.
.	.	8F	.	.	.
.	.	8E	.	.	.
vi	4GG	8D	4A	4d	4f
.	.	8C	.	.	.
=14	=14	=14	=14	=14	=14
V7d	2FF	8BB-	2E	2c	2g
.	.	8D	.	.	.
.	.	8C	.	.	.
.	.	8BB-	.	.	.
iii7	4DD	8AA	4E	4c	4b-
.	.	8GG	.	.	.
=15	=15	=15	=15	=15	=15
I	4BB-	8FF	2F	4c	4a
.	.	8AA	.	.	.
ii7b	4CC	8BB-	.	4d	2g
.	.	8GG	.	.	.
V7	4FF	8C	4E	8c	.
.	.	8CC	.	8B-	.
=16	=16	=16	=16	=16	=16
I;	2BB-;	2FF;	2C;	2A;	2f;
==	==	==	==	==	==
*-	*-	*-	*-	*-	*-
!!chor2scor: -l 2 -s 0.6 -o %b.pmx
!!!YEC: Copyright 2003 by Craig Stuart Sapp
!!!license: GNU General Public License (http://www.gnu.org/copyleft/gpl.html)
!!!SMA: 371 Bach Chorales, edited by Ludwig Erk, C.F. Peters
!!!PDT: 1850, 1865
